X:1
T:Silent Night
T:Silent Night
T:Anoymous
T:Arr. Jordan Locke
C:Anoymous
Z:Arr. Jordan Locke
%%score 1 { 2 | 3 }
L:1/8
M:3/4
K:Ab
V:1 treble nm="Voice"
V:2 treble nm="Piano"
V:3 bass 
V:1
 z6[Q:1/4=85][Q:1/4=71]"^Adagio" | z6 | z6 | z6 | z6 | z6 |!mf! z6 | E3 F E2 | C6 | E3 F E2 | C6 | %11
w: |||||||Si- * lent-|night,|ho- * ly|night,|
 B4 B2 | G6 | A4 A2 | E6 | F4 F2 | A3 G F2 | E3 F E2 | C6 | F4 F2 | A3 G F2 | E3 F E2 | C6 | %23
w: All- is|calm,|all is|bright,|round yon|vir- * gin|mo- ther and|child.|Ho- ly|In- fant so|ten- der- and|mild.|
 B4 B2 |!f! d3 B G2 | A6 | c6 | A2 E2 C2 | E3 D B,2 | A,6 | z6 | z6 | z6 | z6 | z6 | z6 |] %36
w: Sleep in|Hea- ven- ly|Peace,-||Sleep- * in|hea- ven- ly-|peace.|||||||
V:2
 z4 z!p! f/g/ | ag eB Bc- | cG A4 | e3 f e2 | c6 | eA Bc df | !arpeggio![Acd]6 | [Be]A [GB]4 | %8
 Ac [GB]d [Ae]2 | [Ae]d f3 d | c3 B dc | [FB]4 [EB]2 | [DG]6 | [Ac][Bd] [ce]3 [ea] | [ea]2 [Be]4 | %15
 FA BA cd | A2 f2 [Ac]2 | [GB]2 [Gd]2 [de]2 | [Ac]6 | ag fe fc | fe dg fd | cA Bc de | [Af]6 | %23
!<(! Bc de fg!<)! |!f! [Bdfa]2 [Gcg]2 [Bg]2 | [EA]2 [AB]2 c2 | [Ec]2 [GB]2 [CA]2 | %27
!>(! [EA]2 [de]2 c2!>)! | [Be]3 [df] [fg]2 | a2- a3!mp! f/g/ | ag eB Bc | cG A4 | e3 f e2 | c6 | %34
 eA Bc df | !arpeggio![Aca]6 |] %36
V:3
 z4 z z | C,E, G,F, E,[C,-F,] | [C,E,]G, [C,E,A,]4 | [C,E,]2 D,2 [B,,G,]2 | [A,,E,]2 D,2 C,2 | %5
 E,3 F, E,2 | !arpeggio![C,A,]6 | E,,G,, B,,C, E,D, | C,E, A,F, B,2 | E,,G,, B,,C, E,D, | %10
 C,E, A,F, [A,D][F,C] | [F,,D,]2 G,,2 B,,2 | [C,E,]6 | [C,F,][D,G,] [E,F,]E, C,A,, | %14
 [E,G,]2 [D,B,]2 [D,F,]2 | [C,F,]2 [G,B,]2 [C,F,]2 | A,G, F,G, F,2 | [D,G,]4 [B,,E,]2 | %18
 [A,,C,]2 [B,,D,]2 [E,G,]2 | [C,F,]2 [C,E,]2 [C,F,]2 | [F,A,]2 [D,C]2 [C,F,]2 | %21
 [A,,E,]2 [C,F,]2 [B,,E,]2 | [C,F,]6 | [B,,E,G,]2 [D,F,C]2 [D,F,B,]2 | %24
 [D,E,A,]2 [C,E,]2 [G,,B,,D,]2 | [A,,C,]6 | C,D, E,F, [A,,D,]2 | A,,C, E,D, E,F, | %28
 G,F, G,A, [D,F,]2 | [C,E,-]2 [C,E,]3 z | C,E, G,F, E,[C,F,] | [C,E,]G, [C,E,A,]4 | %32
 [C,E,]2 D,2 [B,,G,]2 | [A,,E,]2 D,2 C,2 | E,3 F, E,2 | !arpeggio![C,A,]6 |] %36

